svg/emoji_u1f3ee.svg

<svg enable-background="new 0 0 128 128" viewBox="0 0 128 128" xmlns="http://www.w3.org/2000/svg" xmlns:xlink="http://www.w3.org/1999/xlink"><radialGradient id="f" cx="63.167" cy="0" r="27.624" gradientUnits="userSpaceOnUse"><stop stop-color="#757575" offset="0"/><stop stop-color="#212121" offset=".9787"/></radialGradient><path d="m88 24h-48c-2.21 0-4-1.79-4-4v-12c0-2.21 1.79-4 4-4h48c2.21 0 4 1.79 4 4v12c0 2.21-1.79 4-4 4z" fill="url(#f)"/><radialGradient id="e" cx="63.667" cy="102" r="25.365" gradientUnits="userSpaceOnUse"><stop stop-color="#757575" offset="0"/><stop stop-color="#212121" offset=".9787"/></radialGradient><path d="m88 124h-48c-2.21 0-4-1.79-4-4v-12c0-2.21 1.79-4 4-4h48c2.21 0 4 1.79 4 4v12c0 2.21-1.79 4-4 4z" fill="url(#e)"/><g opacity=".2"><path d="m88 7c0.55 0 1 0.45 1 1v12c0 0.55-0.45 1-1 1h-48c-0.55 0-1-0.45-1-1v-12c0-0.55 0.45-1 1-1h48m0-3h-48c-2.21 0-4 1.79-4 4v12c0 2.21 1.79 4 4 4h48c2.21 0 4-1.79 4-4v-12c0-2.21-1.79-4-4-4z" fill="#eee"/></g><g opacity=".2"><path d="m88 107c0.55 0 1 0.45 1 1v12c0 0.55-0.45 1-1 1h-48c-0.55 0-1-0.45-1-1v-12c0-0.55 0.45-1 1-1h48m0-3h-48c-2.21 0-4 1.79-4 4v12c0 2.21 1.79 4 4 4h48c2.21 0 4-1.79 4-4v-12c0-2.21-1.79-4-4-4z" fill="#eee"/></g><radialGradient id="d" cx="64" cy="16.167" r="102.88" gradientTransform="matrix(1.2222 0 0 1 -14.222 0)" gradientUnits="userSpaceOnUse"><stop stop-color="#E57373" offset="0"/><stop stop-color="#E76D6D" offset=".0432"/><stop stop-color="#ED5A58" offset=".2233"/><stop stop-color="#EF5350" offset=".3414"/><stop stop-color="#D23534" offset=".6076"/><stop stop-color="#C62828" offset=".7648"/><stop stop-color="#C62828" offset="1"/></radialGradient><path d="m88 116h-48c-11.05 0-20-8.95-20-20v-64c0-11.05 8.95-20 20-20h48c11.05 0 20 8.95 20 20v64c0 11.05-8.95 20-20 20z" fill="url(#d)"/><defs><path id="c" d="m88 116h-48c-11.05 0-20-8.95-20-20v-64c0-11.05 8.95-20 20-20h48c11.05 0 20 8.95 20 20v64c0 11.05-8.95 20-20 20z"/></defs><clipPath id="b"><use xlink:href="#c"/></clipPath><radialGradient id="a" cx="67" cy="14" r="102.32" gradientUnits="userSpaceOnUse"><stop stop-color="#E53935" offset="0"/><stop stop-color="#D7302D" offset=".2373"/><stop stop-color="#C02121" offset=".7058"/><stop stop-color="#B71C1C" offset="1"/></radialGradient><rect x="10.22" y="16" width="117.33" height="4" clip-path="url(#b)" fill="url(#a)"/><rect x="10.22" y="24" width="117.33" height="4" clip-path="url(#b)" fill="url(#a)"/><rect x="10.22" y="32" width="117.33" height="4" clip-path="url(#b)" fill="url(#a)"/><rect x="10.22" y="40" width="117.33" height="4" clip-path="url(#b)" fill="url(#a)"/><rect x="10.22" y="48" width="117.33" height="4" clip-path="url(#b)" fill="url(#a)"/><rect x="10.22" y="56" width="117.33" height="4" clip-path="url(#b)" fill="url(#a)"/><rect x="10.22" y="64" width="117.33" height="4" clip-path="url(#b)" fill="url(#a)"/><rect x="10.22" y="72" width="117.33" height="4" clip-path="url(#b)" fill="url(#a)"/><rect x="10.22" y="80" width="117.33" height="4" clip-path="url(#b)" fill="url(#a)"/><rect x="10.22" y="88" width="117.33" height="4" clip-path="url(#b)" fill="url(#a)"/><rect x="10.22" y="96" width="117.33" height="4" clip-path="url(#b)" fill="url(#a)"/><rect x="10.22" y="104" width="117.33" height="4" clip-path="url(#b)" fill="url(#a)"/><rect x="10.22" y="112" width="117.33" height="4" clip-path="url(#b)" fill="url(#a)"/><g opacity=".2"><path d="m88 15c9.37 0 17 7.63 17 17v64c0 9.37-7.63 17-17 17h-48c-9.37 0-17-7.63-17-17v-64c0-9.37 7.63-17 17-17h48m0-3h-48c-11.05 0-20 8.95-20 20v64c0 11.05 8.95 20 20 20h48c11.05 0 20-8.95 20-20v-64c0-11.05-8.95-20-20-20z" fill="#424242"/></g></svg>

<svg width="128" height="128" style="enable-background:new 0 0 128 128;" xmlns="http://www.w3.org/2000/svg" xmlns:xlink="http://www.w3.org/1999/xlink">
  <radialGradient id="SVGID_1_" cx="63.1667" cy="0" gradientUnits="userSpaceOnUse" r="27.6245">
    <stop offset="0" style="stop-color:#757575"/>
    <stop offset="0.9787" style="stop-color:#212121"/>
  </radialGradient>
  <path d="M88,24H40c-2.21,0-4-1.79-4-4V8c0-2.21,1.79-4,4-4h48c2.21,0,4,1.79,4,4v12 C92,22.21,90.21,24,88,24z" style="fill:url(#SVGID_1_);"/>
  <radialGradient id="SVGID_2_" cx="63.6667" cy="102" gradientUnits="userSpaceOnUse" r="25.3651">
    <stop offset="0" style="stop-color:#757575"/>
    <stop offset="0.9787" style="stop-color:#212121"/>
  </radialGradient>
  <path d="M88,124H40c-2.21,0-4-1.79-4-4v-12c0-2.21,1.79-4,4-4h48c2.21,0,4,1.79,4,4v12 C92,122.21,90.21,124,88,124z" style="fill:url(#SVGID_2_);"/>
  <g style="opacity:0.2;">
    <path d="M88,7c0.55,0,1,0.45,1,1v12c0,0.55-0.45,1-1,1H40c-0.55,0-1-0.45-1-1V8c0-0.55,0.45-1,1-1H88 M88,4 H40c-2.21,0-4,1.79-4,4v12c0,2.21,1.79,4,4,4h48c2.21,0,4-1.79,4-4V8C92,5.79,90.21,4,88,4L88,4z" style="fill:#EEEEEE;"/>
  </g>
  <g style="opacity:0.2;">
    <path d="M88,107c0.55,0,1,0.45,1,1v12c0,0.55-0.45,1-1,1H40c-0.55,0-1-0.45-1-1v-12c0-0.55,0.45-1,1-1H88 M88,104H40c-2.21,0-4,1.79-4,4v12c0,2.21,1.79,4,4,4h48c2.21,0,4-1.79,4-4v-12C92,105.79,90.21,104,88,104L88,104z" style="fill:#EEEEEE;"/>
  </g>
  <radialGradient id="SVGID_3_" cx="64" cy="16.1667" gradientTransform="matrix(1.2222 0 0 1 -14.2222 0)" gradientUnits="userSpaceOnUse" r="102.8799">
    <stop offset="0" style="stop-color:#E57373"/>
    <stop offset="0.0432" style="stop-color:#E76D6D"/>
    <stop offset="0.2233" style="stop-color:#ED5A58"/>
    <stop offset="0.3414" style="stop-color:#EF5350"/>
    <stop offset="0.6076" style="stop-color:#D23534"/>
    <stop offset="0.7648" style="stop-color:#C62828"/>
    <stop offset="1" style="stop-color:#C62828"/>
  </radialGradient>
  <path d="M88,116H40c-11.05,0-20-8.95-20-20V32c0-11.05,8.95-20,20-20h48c11.05,0,20,8.95,20,20v64 C108,107.05,99.05,116,88,116z" style="fill:url(#SVGID_3_);"/>
  <g>
    <defs>
      <path id="SVGID_4_" d="M88,116H40c-11.05,0-20-8.95-20-20V32c0-11.05,8.95-20,20-20h48c11.05,0,20,8.95,20,20v64 C108,107.05,99.05,116,88,116z"/>
    </defs>
    <clipPath id="SVGID_5_">
      <use style="overflow:visible;" xlink:href="#SVGID_4_"/>
    </clipPath>
    <radialGradient id="SVGID_6_" cx="67" cy="14" gradientUnits="userSpaceOnUse" r="102.3187">
      <stop offset="0" style="stop-color:#E53935"/>
      <stop offset="0.2373" style="stop-color:#D7302D"/>
      <stop offset="0.7058" style="stop-color:#C02121"/>
      <stop offset="1" style="stop-color:#B71C1C"/>
    </radialGradient>
    <rect height="4" style="clip-path:url(#SVGID_5_);fill:url(#SVGID_6_);" width="117.33" x="10.22" y="16"/>
    <radialGradient id="SVGID_7_" cx="67" cy="14" gradientUnits="userSpaceOnUse" r="102.3187">
      <stop offset="0" style="stop-color:#E53935"/>
      <stop offset="0.2373" style="stop-color:#D7302D"/>
      <stop offset="0.7058" style="stop-color:#C02121"/>
      <stop offset="1" style="stop-color:#B71C1C"/>
    </radialGradient>
    <rect height="4" style="clip-path:url(#SVGID_5_);fill:url(#SVGID_7_);" width="117.33" x="10.22" y="24"/>
    <radialGradient id="SVGID_8_" cx="67" cy="14" gradientUnits="userSpaceOnUse" r="102.3187">
      <stop offset="0" style="stop-color:#E53935"/>
      <stop offset="0.2373" style="stop-color:#D7302D"/>
      <stop offset="0.7058" style="stop-color:#C02121"/>
      <stop offset="1" style="stop-color:#B71C1C"/>
    </radialGradient>
    <rect height="4" style="clip-path:url(#SVGID_5_);fill:url(#SVGID_8_);" width="117.33" x="10.22" y="32"/>
    <radialGradient id="SVGID_9_" cx="67" cy="14" gradientUnits="userSpaceOnUse" r="102.3187">
      <stop offset="0" style="stop-color:#E53935"/>
      <stop offset="0.2373" style="stop-color:#D7302D"/>
      <stop offset="0.7058" style="stop-color:#C02121"/>
      <stop offset="1" style="stop-color:#B71C1C"/>
    </radialGradient>
    <rect height="4" style="clip-path:url(#SVGID_5_);fill:url(#SVGID_9_);" width="117.33" x="10.22" y="40"/>
    <radialGradient id="SVGID_10_" cx="67" cy="14" gradientUnits="userSpaceOnUse" r="102.3187">
      <stop offset="0" style="stop-color:#E53935"/>
      <stop offset="0.2373" style="stop-color:#D7302D"/>
      <stop offset="0.7058" style="stop-color:#C02121"/>
      <stop offset="1" style="stop-color:#B71C1C"/>
    </radialGradient>
    <rect height="4" style="clip-path:url(#SVGID_5_);fill:url(#SVGID_10_);" width="117.33" x="10.22" y="48"/>
    <radialGradient id="SVGID_11_" cx="67" cy="14" gradientUnits="userSpaceOnUse" r="102.3187">
      <stop offset="0" style="stop-color:#E53935"/>
      <stop offset="0.2373" style="stop-color:#D7302D"/>
      <stop offset="0.7058" style="stop-color:#C02121"/>
      <stop offset="1" style="stop-color:#B71C1C"/>
    </radialGradient>
    <rect height="4" style="clip-path:url(#SVGID_5_);fill:url(#SVGID_11_);" width="117.33" x="10.22" y="56"/>
    <radialGradient id="SVGID_12_" cx="67" cy="14" gradientUnits="userSpaceOnUse" r="102.3187">
      <stop offset="0" style="stop-color:#E53935"/>
      <stop offset="0.2373" style="stop-color:#D7302D"/>
      <stop offset="0.7058" style="stop-color:#C02121"/>
      <stop offset="1" style="stop-color:#B71C1C"/>
    </radialGradient>
    <rect height="4" style="clip-path:url(#SVGID_5_);fill:url(#SVGID_12_);" width="117.33" x="10.22" y="64"/>
    <radialGradient id="SVGID_13_" cx="67" cy="14" gradientUnits="userSpaceOnUse" r="102.3187">
      <stop offset="0" style="stop-color:#E53935"/>
      <stop offset="0.2373" style="stop-color:#D7302D"/>
      <stop offset="0.7058" style="stop-color:#C02121"/>
      <stop offset="1" style="stop-color:#B71C1C"/>
    </radialGradient>
    <rect height="4" style="clip-path:url(#SVGID_5_);fill:url(#SVGID_13_);" width="117.33" x="10.22" y="72"/>
    <radialGradient id="SVGID_14_" cx="67" cy="14" gradientUnits="userSpaceOnUse" r="102.3187">
      <stop offset="0" style="stop-color:#E53935"/>
      <stop offset="0.2373" style="stop-color:#D7302D"/>
      <stop offset="0.7058" style="stop-color:#C02121"/>
      <stop offset="1" style="stop-color:#B71C1C"/>
    </radialGradient>
    <rect height="4" style="clip-path:url(#SVGID_5_);fill:url(#SVGID_14_);" width="117.33" x="10.22" y="80"/>
    <radialGradient id="SVGID_15_" cx="67" cy="14" gradientUnits="userSpaceOnUse" r="102.3187">
      <stop offset="0" style="stop-color:#E53935"/>
      <stop offset="0.2373" style="stop-color:#D7302D"/>
      <stop offset="0.7058" style="stop-color:#C02121"/>
      <stop offset="1" style="stop-color:#B71C1C"/>
    </radialGradient>
    <rect height="4" style="clip-path:url(#SVGID_5_);fill:url(#SVGID_15_);" width="117.33" x="10.22" y="88"/>
    <radialGradient id="SVGID_16_" cx="67" cy="14" gradientUnits="userSpaceOnUse" r="102.3187">
      <stop offset="0" style="stop-color:#E53935"/>
      <stop offset="0.2373" style="stop-color:#D7302D"/>
      <stop offset="0.7058" style="stop-color:#C02121"/>
      <stop offset="1" style="stop-color:#B71C1C"/>
    </radialGradient>
    <rect height="4" style="clip-path:url(#SVGID_5_);fill:url(#SVGID_16_);" width="117.33" x="10.22" y="96"/>
    <radialGradient id="SVGID_17_" cx="67" cy="14" gradientUnits="userSpaceOnUse" r="102.3187">
      <stop offset="0" style="stop-color:#E53935"/>
      <stop offset="0.2373" style="stop-color:#D7302D"/>
      <stop offset="0.7058" style="stop-color:#C02121"/>
      <stop offset="1" style="stop-color:#B71C1C"/>
    </radialGradient>
    <rect height="4" style="clip-path:url(#SVGID_5_);fill:url(#SVGID_17_);" width="117.33" x="10.22" y="104"/>
    <radialGradient id="SVGID_18_" cx="67" cy="14" gradientUnits="userSpaceOnUse" r="102.3187">
      <stop offset="0" style="stop-color:#E53935"/>
      <stop offset="0.2373" style="stop-color:#D7302D"/>
      <stop offset="0.7058" style="stop-color:#C02121"/>
      <stop offset="1" style="stop-color:#B71C1C"/>
    </radialGradient>
    <rect height="4" style="clip-path:url(#SVGID_5_);fill:url(#SVGID_18_);" width="117.33" x="10.22" y="112"/>
  </g>
  <g style="opacity:0.2;">
    <path d="M88,15c9.37,0,17,7.63,17,17v64c0,9.37-7.63,17-17,17H40c-9.37,0-17-7.63-17-17V32 c0-9.37,7.63-17,17-17H88 M88,12H40c-11.05,0-20,8.95-20,20v64c0,11.05,8.95,20,20,20h48c11.05,0,20-8.95,20-20V32 C108,20.95,99.05,12,88,12L88,12z" style="fill:#424242;"/>
  </g>
</svg>
